X: 56
T:O'Connor's Frolics (#166)
M:6/8
L:1/8
S:Sergt. James O'Neill manuscripts
K:F
D/4E/4F/4G/4|:AFF AFF|BGG BGG|AFF AFF|GFG EFG|
AFF AFF|BGG BGG|B/2c/2dB cAG|FDD D2 z:|
|:Add dcd|efe dcB|Add dfa|gee e2 A|
Add dcd|efd cBA|B/2c/2dB cAG|FDD D2 z:|
|:DFF AFF|dFF AFF|DFF AFF|GEE E3|
DFF AFF|dFF AFF|BAB cAG|FDD D2 z:|
|:Add dcd|cBA AFA|Add dcd|ecA Acd|
fdd ecc|dcB AFA|BAB cAG|FDD D2z:||

